assets/Skunk/Flat/skunk_flat.svg

<svg width="32" height="32" viewBox="0 0 32 32" fill="none" xmlns="http://www.w3.org/2000/svg">
<path d="M13.66 29.7111L11.11 25.6911L16 24.6211V29.6911C16 29.8611 15.86 30.0011 15.69 30.0011H14.19C13.97 30.0011 13.77 29.8911 13.66 29.7111Z" fill="#212121"/>
<path d="M21.34 29.7111L23.89 25.6911L19 24.6211V29.6911C19 29.8611 19.14 30.0011 19.31 30.0011H20.81C21.03 30.0011 21.22 29.8911 21.34 29.7111Z" fill="#212121"/>
<path d="M21.63 2.00098C19.64 1.97098 17.8 2.63098 16.34 3.75098C14.45 5.20098 12.14 6.00098 9.77 6.00098C9.34 6.00098 9 6.34098 9 6.77098C9 6.85552 9.00247 6.93948 9.00734 7.02278L11.0129 9.97493L19 10.75H20.71C22.4967 10.7401 23.9618 12.4267 23.9993 14.2207C23.1142 13.8649 22.1137 13.6865 21 13.6865C18.6 13.6865 16.4846 14.7253 15.2238 16.3763L15.21 16.301L16 15.2048C14.489 16.935 13.1618 17.0777 11.9994 16.5446C11.9998 16.5301 12 16.5156 12 16.501C12 15.6725 11.3284 15.001 10.5 15.001C10.1775 15.001 9.87873 15.1028 9.63412 15.276C9.32654 15.2019 9.00341 15.1629 8.67 15.1629C7.4 15.1629 6.22 15.8029 5.52 16.8629L4.32 18.7029C4.02 19.1629 3.5 19.4429 2.94 19.4429H2.54C2.24 19.4429 2 19.5209 2 19.8209C2 20.7209 2.27 22.0009 3.9 22.0009H4.87C5.47 22.0009 5.92 22.2509 6.23 22.7709L7.8 25.2409C8.04 25.6309 8.06 26.1209 7.85 26.5309L6.34 29.5509C6.24 29.7609 6.39 30.0009 6.63 30.0009H8.84C9.12 30.0009 9.38 29.8809 9.56 29.6709L12.29 26.4409C12.53 26.1609 12.88 26.0009 13.24 26.0009H21.4C21.83 26.0009 22.23 26.2209 22.46 26.5809L24.44 29.7109C24.55 29.8909 24.75 30.0009 24.97 30.0009H27.38C27.72 30.0009 28 29.7209 28 29.3809V20.0009C28 19.2992 27.8971 18.6264 27.7055 17.995C27.5276 17.5985 27.3312 17.2292 27.1164 16.8871C28.9029 15.3168 30.0263 13.0092 30.01 10.441C29.97 5.83098 26.23 2.07098 21.63 2.00098Z" fill="#636363"/>
<path d="M27 16.3901L26.9938 16.3798L26.9903 16.3779C27.2954 16.881 27.5388 17.4255 27.71 18.001H26.79C26.3 18.001 25.84 17.751 25.56 17.341C24.58 15.881 22.94 15.001 21.18 15.001C19.79 15.001 18.45 15.551 17.46 16.541L17.35 16.651C16.49 17.511 15.31 18.001 14.09 18.001C13.38 18.001 12.67 17.831 12.03 17.511L11.7289 17.3614C11.8997 17.1178 12 16.8211 12 16.501C12 16.4801 11.9996 16.4594 11.9987 16.4387C13.0841 16.9362 14.3118 16.8478 15.7 15.421C15.8 15.311 15.9 15.201 16 15.101C17.27 13.811 19.04 13.001 21 13.001C22.0577 13.001 23.0609 13.2359 23.9601 13.6563L23.9581 13.6534L23.9361 13.6432C23.6342 12.1363 22.2993 11.0088 20.71 11H12.9922C10.8322 10.9 9.12 9.15097 9 6.99097C10.28 8.27097 12.01 8.99097 13.82 8.99097H21.57C24.57 8.99097 27 11.421 27 14.421V16.3901Z" fill="#D3D3D3"/>
<path d="M9.07322 16.0367C9.19464 15.6633 9.45859 15.3542 9.80086 15.1735C9.44548 15.0585 9.06852 15.001 8.67 15.001C7.4 15.001 6.22 15.641 5.52 16.701L4.32 18.541C4.02 19.001 3.5 19.281 2.94 19.281H2.54C2.24 19.281 2 19.521 2 19.821V20.001H3.46C4.43 20.001 5.34 19.541 5.92 18.771L7.07 17.231C7.56417 16.586 8.28284 16.1586 9.07322 16.0367Z" fill="#D3D3D3"/>
<path d="M10.5 17.3109C10.9474 17.3109 11.31 16.9483 11.31 16.5009C11.31 16.0536 10.9474 15.6909 10.5 15.6909C10.0527 15.6909 9.69 16.0536 9.69 16.5009C9.69 16.9483 10.0527 17.3109 10.5 17.3109Z" fill="#1C1C1C"/>
<path d="M2.6 20.451C2.93137 20.451 3.2 20.1823 3.2 19.851C3.2 19.5196 2.93137 19.251 2.6 19.251C2.26863 19.251 2 19.5196 2 19.851C2 20.1823 2.26863 20.451 2.6 20.451Z" fill="#1C1C1C"/>
<path d="M7 19.351C7 19.631 7.22 19.851 7.5 19.851C7.78 19.851 8 19.621 8 19.351V18.751C8 18.471 7.78 18.251 7.5 18.251C7.22 18.251 7 18.471 7 18.751V19.351Z" fill="#1C1C1C"/>
</svg>

<svg xmlns="http://www.w3.org/2000/svg" width="32" height="32" fill="none"><path fill="#212121" d="m13.66 29.711-2.55-4.02 4.89-1.07v5.07c0 .17-.14.31-.31.31h-1.5c-.22 0-.42-.11-.53-.29ZM21.34 29.711l2.55-4.02-4.89-1.07v5.07c0 .17.14.31.31.31h1.5c.22 0 .41-.11.53-.29Z"/><path fill="#636363" d="M21.63 2.001c-1.99-.03-3.83.63-5.29 1.75-1.89 1.45-4.2 2.25-6.57 2.25-.43 0-.77.34-.77.77 0 .085.002.168.007.252l2.006 2.952L19 10.75h1.71c1.787-.01 3.252 1.677 3.29 3.47-.886-.355-1.886-.534-3-.534-2.4 0-4.515 1.04-5.776 2.69l-.014-.075.79-1.096c-1.511 1.73-2.838 1.873-4 1.34V16.5a1.5 1.5 0 0 0-2.366-1.225 4.114 4.114 0 0 0-.964-.113c-1.27 0-2.45.64-3.15 1.7l-1.2 1.84c-.3.46-.82.74-1.38.74h-.4c-.3 0-.54.078-.54.378 0 .9.27 2.18 1.9 2.18h.97c.6 0 1.05.25 1.36.77l1.57 2.47c.24.39.26.88.05 1.29l-1.51 3.02c-.1.21.05.45.29.45h2.21c.28 0 .54-.12.72-.33l2.73-3.23c.24-.28.59-.44.95-.44h8.16c.43 0 .83.22 1.06.58l1.98 3.13c.11.18.31.29.53.29h2.41c.34 0 .62-.28.62-.62V20c0-.702-.103-1.375-.294-2.006a9.038 9.038 0 0 0-.59-1.108 8.487 8.487 0 0 0 2.894-6.446c-.04-4.61-3.78-8.37-8.38-8.44Z"/><path fill="#D3D3D3" d="m27 16.39-.006-.01-.004-.002c.305.503.549 1.047.72 1.623h-.92c-.49 0-.95-.25-1.23-.66a5.276 5.276 0 0 0-4.38-2.34c-1.39 0-2.73.55-3.72 1.54l-.11.11c-.86.86-2.04 1.35-3.26 1.35-.71 0-1.42-.17-2.06-.49l-.301-.15a1.494 1.494 0 0 0 .27-.922c1.085.497 2.313.409 3.701-1.018.1-.11.2-.22.3-.32a7.001 7.001 0 0 1 7.96-1.445l-.002-.003-.022-.01A3.306 3.306 0 0 0 20.71 11h-7.718C10.832 10.9 9.12 9.151 9 6.991c1.28 1.28 3.01 2 4.82 2h7.75c3 0 5.43 2.43 5.43 5.43v1.97ZM9.073 16.037c.122-.374.386-.683.728-.863A3.774 3.774 0 0 0 5.52 16.7l-1.201 1.84c-.3.46-.82.74-1.38.74h-.4c-.3 0-.54.24-.54.54v.18h1.46c.97 0 1.88-.46 2.46-1.23l1.15-1.54a3.13 3.13 0 0 1 2.003-1.194Z"/><path fill="#1C1C1C" d="M10.5 17.31a.81.81 0 1 0 0-1.619.81.81 0 0 0 0 1.62ZM2.6 20.451a.6.6 0 1 0 0-1.2.6.6 0 0 0 0 1.2ZM7 19.351c0 .28.22.5.5.5s.5-.23.5-.5v-.6c0-.28-.22-.5-.5-.5s-.5.22-.5.5v.6Z"/></svg>
